images/icon-sprite/google-plus.svg

<?xml version="1.0" encoding="UTF-8"?>
<svg xmlns="http://www.w3.org/2000/svg" xmlns:xlink="http://www.w3.org/1999/xlink" width="18pt" height="18pt" viewBox="0 0 18 18" version="1.1">
<g id="surface1">
<path style=" stroke:none;fill-rule:nonzero;fill:rgb(0%,0%,0%);fill-opacity:1;" d="M 5.835938 5.308594 C 7.054688 5.308594 8.15625 5.933594 8.789062 6.796875 L 10.285156 5.289062 C 9.390625 4.121094 7.667969 3.199219 5.835938 3.199219 C 2.628906 3.199219 0 5.792969 0 9 C 0 12.207031 2.628906 14.800781 5.835938 14.800781 C 8.492188 14.800781 10.730469 13.019531 11.414062 10.582031 C 11.5625 10.074219 11.636719 9.546875 11.636719 9 L 11.636719 8.472656 L 6.363281 8.472656 L 6.363281 10.582031 L 9.15625 10.582031 C 8.578125 11.828125 7.300781 12.691406 5.835938 12.691406 C 3.800781 12.691406 2.109375 11.035156 2.109375 9 C 2.109375 6.964844 3.800781 5.308594 5.835938 5.308594 Z M 5.835938 5.308594 "/>
<path style=" stroke:none;fill-rule:nonzero;fill:rgb(0%,0%,0%);fill-opacity:1;" d="M 16.382812 6.363281 L 14.273438 6.363281 L 14.273438 7.945312 L 12.691406 7.945312 L 12.691406 10.054688 L 14.273438 10.054688 L 14.273438 11.636719 L 16.382812 11.636719 L 16.382812 10.054688 L 18 10.054688 L 18 7.945312 L 16.382812 7.945312 Z M 16.382812 6.363281 "/>
</g>
</svg>

<svg xmlns="http://www.w3.org/2000/svg" width="24" height="24" viewBox="0 0 18 18"><path d="M5.836 5.309c1.219 0 2.32.625 2.953 1.488l1.496-1.508C9.391 4.121 7.668 3.2 5.835 3.2 2.63 3.2 0 5.793 0 9s2.629 5.8 5.836 5.8a5.79 5.79 0 005.578-4.218A5.61 5.61 0 0011.637 9v-.527H6.363v2.109h2.793a3.663 3.663 0 01-3.32 2.11C3.8 12.691 2.109 11.034 2.109 9s1.692-3.691 3.727-3.691zm10.547 1.054h-2.11v1.582h-1.582v2.11h1.582v1.582h2.11v-1.582H18v-2.11h-1.617zm0 0" id="surface1"/></svg>
